!!!!SEGMENT: pl-wn--mus-iii-129-090--001_zelenski-wladyslaw--dwie-piosnki-op-14-moj-kwiatek.krn
!!!cenid: 18xx:3677
!!!COM: Żeleński, Władysław
!!!COM-rismID: pe41024455
!!!CDT: 1837/07/06-1921/01/23
!!!CNT: Polish
!!!GTL: Dwie piosnki op. 14
!!!OTL: Mój kwiatek
!!!PDT:
!!!AGN:
!!!SMS-siglum: PL-Wn
!!!SMS-shelfmark: Mus.III.129.090
!!!SMS-shelfwork: 001 G
!!!SMS-variant:
!!!SMS-altvar:
!!!NIFC-rismSourceID:
!!!NIFC-islandoraID:
!!!URL-pdf-islandora:
!!!URL-scan: https://polona.pl/item/dwie-piosnki-dzielo-14,MTA5NTkyMzI5/0/#info:metadata @EN{Scan on Polona} @PL{Skany w portalu Polona}
!!!ONB-nifc:
!!!AIN: 2 piano 1 vox
!!!key: D
**kern	**kern	**dynam	**kern	**text	**text	**text	**dynam
*part3	*part2	*part2	*part1	*part1	*part1	*part1	*part1
*staff3	*staff2	*	*staff1	*staff1	*staff1	*staff1	*
*I"Fortepian.	*I"Fortepian.	*	*I"Śpiew.	*	*	*	*
*I'pf	*I'pf	*	*I'V	*	*	*	*
*ICklav	*ICklav	*	*ICvox	*	*	*	*
*Ipiano	*Ipiano	*	*Ivox	*	*	*	*
*clefF4	*clefG2	*	*clefG2	*	*	*	*
*k[f#c#]	*k[f#c#]	*	*k[f#c#]	*	*	*	*
*D:	*D:	*	*D:	*	*	*	*
*M3/8	*M3/8	*	*M3/8	*	*	*	*
=1	=1	=1	=1	=1	=1	=1	=1
!	!	!	!LO:TX:a:B:t=Andantino.	!	!	!	!
!	!	!LO:DY:b	!	!	!	!	!
8r	32aa'/LLL	pp	4.r	.	.	.	.
!	!LO:TX:b:i:t=leggiero	!	!	!	!	!	!
.	32gg'/	.	.	.	.	.	.
.	32ff#'/	.	.	.	.	.	.
.	32ee'/JJJ	.	.	.	.	.	.
32r	4dd/	.	.	.	.	.	.
32cc#'\LLL	.	.	.	.	.	.	.
32b'\	.	.	.	.	.	.	.
32a'\JJJ	.	.	.	.	.	.	.
32g'\LLL	.	.	.	.	.	.	.
32f#'\	.	.	.	.	.	.	.
32e'\	.	.	.	.	.	.	.
32d'\JJJ	.	.	.	.	.	.	.
=2	=2	=2	=2	=2	=2	=2	=2
!	!	!LO:HP:b	!	!	!	!	!
32c#'\LLL	16.dd\LL 16.ee	<	4.r	.	.	.	.
32B'\	.	.	.	.	.	.	.
32A'\	.	.	.	.	.	.	.
32G'\JJJ	(32dd\JJk 32ee	.	.	.	.	.	.
32F#'\LLL	4ccn\) 4aa	.	.	.	.	.	.
32E'\	.	.	.	.	.	.	.
32D'\	.	.	.	.	.	.	.
32Cn'\JJJ	.	.	.	.	.	.	.
32BB'/LLL	.	.	.	.	.	.	.
32AA'/	.	.	.	.	.	.	.
32GG'/	.	.	.	.	.	.	.
32FF#'/JJJ	.	.	.	.	.	.	.
=3	=3	=3	=3	=3	=3	=3	=3
24GG/LL	16.b\LL 16.dd	.	4.r	.	.	.	.
24FF#/	.	.	.	.	.	.	.
24EE/JJ	.	.	.	.	.	.	.
.	(32b\JJk 32dd	.	.	.	.	.	.
16DD/LL	8.b-X\) 8.gg	.	.	.	.	.	.
16CC#/J	.	.	.	.	.	.	.
[8DD/J	.	.	.	.	.	.	.
!	!	!LO:HP:b	!	!	!	!	!
.	16g/ 16b-	[ >	.	.	.	.	.
!!LO:LB:g=original	!	!	!	!	!	!	!
=4!|:	=4!|:	=4!|:	=4!|:	=4!|:	=4!|:	=4!|:	=4!|:
*	*^	*	*	*	*	*	*
16DD/]	[8a/L	[16f#\LL	.	4.r	.	.	.	.
16r	.	16A\JJ	.	.	.	.	.	.
16r	16a/Jk]	16d\ 16f#]	.	.	.	.	.	.
16D'\KL	16r	8.ryy	]	.	.	.	.	.
[8d\J	16r	.	.	.	.	.	.	.
.	(>16e/	.	.	.	.	.	.	.
=5	=5	=5	=5	=5	=5	=5	=5	=5
!	!	!	!LO:DY:b	!	!	!	!	!
(8d\L]	8f#/L	4f#\	pp	16a/	W pą-	Chrzest	I	.
.	.	.	.	16a/	-czku	ci	dla	.
8cn\	8a/	.	.	8dd\	ró-	da-	te-	.
8B\J	8g/J) 8dd	8ryy	.	8g/	-ży	-ła	-go	.
=6	=6	=6	=6	=6	=6	=6	=6	=6
8A\L	(8f#/L	4.d\	.	16f#/	tyś	Bo-	Choć	.
.	.	.	.	16f#/	po-	-ża	tak	.
8G\	8b/	.	.	8b\	-czę-	rę-	ma-	.
8F#\J)	8a/J	.	.	8a/	-ta	-ka	-ły	.
=7	=7	=7	=7	=7	=7	=7	=7	=7
*^	*	*	*	*	*	*	*	*
4.F#/	4.AA\	8d/L	[4.A\	.	8.d/	Jak	Ro-	Tyś	.
.	.	8a/	.	.	.	.	.	.	.
.	.	.	.	.	16e/	jéj	-są	na	.
.	.	8d/J)	.	.	16f#/	cu-	chrzci-	zie-	.
.	.	.	.	.	16g/	-dny	-ła	-mi	.
*v	*v	*	*	*	*	*	*	*	*
!!LO:LB:g=original	!	!	!	!	!	!	!	!
=8	=8	=8	=8	=8	=8	=8	=8	=8
*ped	*	*	*	*	*	*	*	*
16AA/ 16E	16c#/	16A\]	.	4a/	kwiat,	cię,	kwiat,	.
16r	16aa'\LL	4ryy	.	.	.	.	.	.
16r	16a'\JJ	.	.	.	.	.	.	.
16c#'\LL 16e	16r	.	.	.	.	.	.	.
16A'\JJ	8r	.	.	8r	.	.	.	.
*Xped	*	*	*	*	*	*	*	*
16r	.	16ryy	.	.	.	.	.	.
=9	=9	=9	=9	=9	=9	=9	=9	=9
!	!	!	!	!	!	!	!	!LO:DY:a
!	!	!	!LO:HP:b	!	!	!	!	!
8D\L	4a/	4f#\	<	16a/	Ran-	Błę-	Ja	<
.	.	.	.	16a/	-kiem	-kit	bym	.
8d\	.	.	.	8ff#\	na	gwia-	cie-	.
8A#X\J	8g/ 8cc#	8ryy	.	8cc#\	zie-	-zdy	-bie	.
=10	=10	=10	=10	=10	=10	=10	=10	=10
8B\L	8f#/L 8dd	8ryy	.	16dd\	-lo-	i	za	.
.	.	.	.	16f#/	-ne	ju-	ten	.
8BB\	8f#/	4d\	.	8dd\	świę-	-trzen-	ca-	.
8E\J	8g#X/J	.	[	8g#X/	-ta	-ka	-ły	[[
=11	=11	=11	=11	=11	=11	=11	=11	=11
*^	*	*	*	*	*	*	*	*
!	!	!	!	!	!	!	!	!	!LO:DY:a
!	!	!	!	!LO:HP:b	!	!	!	!	!
8F#/L	4.AA\	4.a/	8d\L	>	8.a/	Przy-	By-	Nie	>
8E/	.	.	8c#X\	.	.	.	.	.	.
.	.	.	.	.	16a#X/	-szłaś	-łe	dał	.
8G/J	.	.	8e\J	.	16b\	na	ku-	wiel-	.
.	.	.	.	]	16cc#\	ten	-my	-ki	]]
*v	*v	*	*	*	*	*	*	*	*
*	*v	*v	*	*	*	*	*	*
=12	=12	=12	=12	=12	=12	=12	=12
*ped	*	*	*	*	*	*	*
16D\ 16F#	16d/	.	4dd\	świat.	twe.	swiat.	.
16r	16ddd'\LL	.	.	.	.	.	.
16r	16dd'\JJ	.	.	.	.	.	.
*clefG2	*	*	*	*	*	*	*
16f#'/LL 16a	16r	.	.	.	.	.	.
16d'/JJ	8r	.	8r	.	.	.	.
*Xped	*	*	*	*	*	*	*
16r	.	.	.	.	.	.	.
!!LO:LB:g=original	!	!	!	!	!	!	!
!!LO:PB:g=original	!	!	!	!	!	!	!
=13	=13	=13	=13	=13	=13	=13	=13
*^	*	*	*	*	*	*	*
!	!	!	!LO:DY:b	!	!	!	!	!
[4g/	16A\LL	32ee'\LLL	pp	16a/	Przysz-	I	Nie	.
.	.	32dd'\	.	.	.	.	.	.
!	!	!	!LO:HP:b:t=crescendo	!	!	!	!	!LO:HP:a:t=crescendo
.	16B\	32cc#'\	<	16a/	-łaś	dla-	dał	<
.	.	32b'\JJJ	.	.	.	.	.	.
.	16c#\	32a'\LLL	.	16a/	ran-	-te-	cie-	.
.	.	32b'\	.	.	.	.	.	.
.	16B\	32cc#'\	.	16a/	-kiem	-go	-bie	.
.	.	32dd'\JJJ	.	.	.	.	.	.
!	!	!LO:TX:b:i:t=sempre	!	!LO:TX:a:i:t=sempre	!	!	!	!
16g/]	16A\JJ	32ee'\LLL	.	16a/	bo-	ta-	za	.
.	.	32cc#'\	.	.	.	.	.	.
16r	16ryy	32b'\	.	16a/	-ży	-kaś	me	.
.	.	32a'\JJJ	.	.	.	.	.	.
=14	=14	=14	=14	=14	=14	=14	=14	=14
!	!	!LO:TX:b:i:t=e stringendo	!	!LO:TX:a:i:t=e stringendo	!	!	!	!
[4ccn/	16d\LL	32aa'\LLL	.	8dd\	cu-	czy-	tchnie-	.
.	.	32gg'\	.	.	.	.	.	.
.	16e\	32ff#'\	.	.	.	.	.	.
.	.	32ee'\JJJ	.	.	.	.	.	.
.	16f#\	32dd'\LLL	.	8dd\	-dzie,	-sta,	-nie,	.
.	.	32ee'\	.	.	.	.	.	.
.	16e\	32ff#'\	.	.	.	.	.	.
.	.	32gg'\JJJ	.	.	.	.	.	.
16cc/]	16d\JJ	32aa'\LLL	.	16dd\	Gdy	Jak	I	.
.	.	32ff#'\	.	.	.	.	.	.
16r	16ryy	32ee'\	.	16dd\	świat	błę-	za	.
.	.	32dd'\JJJ	.	.	.	.	.	.
=15	=15	=15	=15	=15	=15	=15	=15	=15
[4fn/	16G\LL	32dd'\LLL	.	[4.gg\	le-	-ki-	wie-	.
.	.	32ccn'\	.	.	.	.	.	.
.	16A\	32b'\	.	.	.	.	.	.
.	.	32a'\JJJ	.	.	.	.	.	.
.	16B\	32g'\LLL	.	.	.	.	.	.
.	.	32a'\	.	.	.	.	.	.
.	16A\JJ	32b'\	.	.	.	.	.	.
.	.	32cc'\JJJ	.	.	.	.	.	.
16f/]	16G\	32dd'\LLL	.	.	.	.	.	.
.	.	32b'\	.	.	.	.	.	.
16r	16ryy	32a'\	.	.	.	.	.	.
.	.	32g'\JJJ	.	.	.	.	.	.
=16	=16	=16	=16	=16	=16	=16	=16	=16
!	!	!	!LO:HP:b	!	!	!	!	!
[4b-X/	16cn\LL	32gg'\LLL	>	4gg\]	.	.	.	.
.	.	32ffn'\	.	.	.	.	.	.
.	16d\	32ee'\	.	.	.	.	.	.
.	.	32dd'\JJJ	.	.	.	.	.	.
.	16e\	32ccn'\LLL	.	.	.	.	.	.
.	.	32dd'\	.	.	.	.	.	.
.	16d\JJ	32ee'\	.	.	.	.	.	.
.	.	32ff'\JJJ	.	.	.	.	.	.
16b-/]	[8c\	32gg'\LLL	.	8b-X\	-żał	-tu	-czny	.
.	.	32ee'\	.	.	.	.	.	.
16r	.	32dd'\	.	.	.	.	.	.
.	.	32cc'\JJJ	.	.	.	.	.	.
*v	*v	*	*	*	*	*	*	*
!!LO:LB:g=original	!	!	!	!	!	!	!
=17	=17	=17	=17	=17	=17	=17	=17
!	!	!	!LO:TX:a:i:t=riten.	!	!	!	!
4cn/]	32gg'\LLL	.	4.b-X\	snem;	szczyt,	raj,	.
!	!LO:TX:b:i:t=riten.	!	!	!	!	!	!
.	32ee'\	.	.	.	.	.	.
.	32dd'\	.	.	.	.	.	.
.	32ccn'\JJJ	.	.	.	.	.	.
.	32ee'\LLL	.	.	.	.	.	.
.	32b-X'\	.	.	.	.	.	.
.	32a'\	.	.	.	.	.	.
.	32g'\JJJ	.	.	.	.	.	.
8d#X/	32ee'\LLL	]	.	.	.	.	.
.	32b-'\	.	.	.	.	.	.
.	32a'\	.	.	.	.	.	.
.	32g'\JJJ	.	.	.	.	.	.
=18	=18	=18	=18	=18	=18	=18	=18
*	*^	*	*	*	*	*	*
!LO:TX:a:i:t=a tempo	!	!	!	!LO:TX:a:i:t=a tempo	!	!	!	!
(8d/L	(8f#/L	4f#\	.	16a/	Nim	Jak	A	.
.	.	.	.	16a/	go	gwiaz-	ty	.
8cn/	8a/	.	.	8dd\	o-	-de-	za	.
8B/J	8dd/J	8g\	.	8g/	-wio-	-czka	to	.
*clefF4	*	*	*	*	*	*	*	*
=19	=19	=19	=19	=19	=19	=19	=19	=19
8A\L	8f#/L	4.d\	.	16f#/	-nę-	pro-	mi	.
.	.	.	.	16f#/	-li	-mie-	spoj-	.
8G\	8b/	.	.	8b\	lu-	-ni-	-rze-	.
8F#\J)	8a/J)	.	.	8a/	-dzie	-sta	-nie	.
=20	=20	=20	=20	=20	=20	=20	=20	=20
[4.AA/ 4.F#	8d/L	4.A\	.	8.d/	Nim	Jak	A	.
.	8a/	.	.	.	.	.	.	.
.	.	.	.	16e/	go	gwiaz-	ty	.
.	8d/J	.	.	16f#/	o-	-de-	za	.
.	.	.	.	16g/	-wio-	-czka	to	.
*	*v	*v	*	*	*	*	*	*
!!LO:LB:g=original	!	!	!	!	!	!	!
=21	=21	=21	=21	=21	=21	=21	=21
*^	*	*	*	*	*	*	*
(8E/L	4.AA\]	4c#/	.	(8.a/L	-nę-	pro-	mi	.
8A/	.	.	.	.	.	.	.	.
.	.	.	.	16a#X/L	.	.	.	.
8G/J)	.	8c#/ 8e	.	16b/JJ)	.	.	.	.
.	.	.	.	16cc#\	li	-mie-	spoj-	.
*v	*v	*	*	*	*	*	*	*
=22	=22	=22	=22	=22	=22	=22	=22
8BB\ 8G#X	8d/	.	(16dd\LL	lu-	-ni-	-rze-	.
.	.	.	16ee\JJ)	.	.	.	.
8r	16r	.	8ff#\	-dzie	-sta	-nie	.
.	(16fff#'\LL	.	.	.	.	.	.
16r	16gg#X'\JJ)	.	8r	.	.	.	.
*clefG2	*	*	*	*	*	*	*
(16dd'\LL 16ff#	16r	.	.	.	.	.	.
=23	=23	=23	=23	=23	=23	=23	=23
16g#X'\JJ)	16r	.	4.r;	.	.	.	.
16r	(16ff#'\LL	.	.	.	.	.	.
16r	16g#X'\JJ)	.	.	.	.	.	.
(16d'/LL 16f#	16r	.	.	.	.	.	.
16G#X'/JJ)	8r;	.	.	.	.	.	.
16r;	.	.	.	.	.	.	.
=24	=24	=24	=24	=24	=24	=24	=24
8r	8r	.	16f#/	Ziem-	I	Tyl-	.
.	.	.	16f#/	-skim	ju-	-ko	.
*clefF4	*	*	*	*	*	*	*
!	!	!LO:HP:b	!	!	!	!	!
(8AA'/L 8E	(8d'/L 8b	>	8b\	tchnie-	-trzen-	je-	.
8AA'/J) 8Gn	8c#'/J) 8a	]]	8a/	-niem	-ki	-dno	.
!!LO:LB:g=original	!	!	!	!	!	!	!
=25	=25	=25	=25	=25	=25	=25	=25
!	!	!LO:DY:b	!	!	!	!	!
8D\ 8F#	32aa'/LLL	pp	4d/	swém.	świt.	daj.	.
!	!LO:TX:b:i:t=leggiero	!	!	!	!	!	!
.	32gg'/	.	.	.	.	.	.
.	32ff#'/	.	.	.	.	.	.
.	32ee'/JJJ	.	.	.	.	.	.
32r	4dd/	.	.	.	.	.	.
32cc#'\LLL	.	.	.	.	.	.	.
32b'\	.	.	.	.	.	.	.
32a'\JJJ	.	.	.	.	.	.	.
32g'\LLL	.	.	8r	.	.	.	.
32f#'\	.	.	.	.	.	.	.
32e'\	.	.	.	.	.	.	.
32d'\JJJ	.	.	.	.	.	.	.
=26	=26	=26	=26	=26	=26	=26	=26
!	!	!LO:HP:b	!	!	!	!	!
32c#'\LLL	16.dd\LL 16.ee	<	4.r	.	.	.	.
32B'\	.	.	.	.	.	.	.
32A'\	.	.	.	.	.	.	.
32G'\JJJ	(32dd\JJk 32ee	.	.	.	.	.	.
32F#'\LLL	4ccn\) 4aa	.	.	.	.	.	.
32E'\	.	.	.	.	.	.	.
32D'\	.	.	.	.	.	.	.
32Cn'\JJJ	.	.	.	.	.	.	.
32BB'/LLL	.	.	.	.	.	.	.
32AA'/	.	.	.	.	.	.	.
32GG'/	.	.	.	.	.	.	.
32FF#'/JJJ	.	.	.	.	.	.	.
=27	=27	=27	=27	=27	=27	=27	=27
24GG'/LL	16.b\LL 16.dd	.	4.r	.	.	.	.
24FF#'/	.	.	.	.	.	.	.
24EE'/JJ	.	.	.	.	.	.	.
.	(32b\JJk 32dd	.	.	.	.	.	.
16DD'/LL	8.b-X\) 8.gg	.	.	.	.	.	.
16CC#'/JJ	.	.	.	.	.	.	.
[8DD/	.	.	.	.	.	.	.
.	16g/ 16b-	[[	.	.	.	.	.
=28:|!	=28:|!	=28:|!	=28:|!	=28:|!	=28:|!	=28:|!	=28:|!
*	*^	*	*	*	*	*	*
!	!	!	!LO:HP:b	!	!	!	!	!
4.DD;/]	[8a/	[16f#\LL	>	4.r;	.	.	.	.
.	.	16A\JJ	.	.	.	.	.	.
.	4f#;/] 4a] 4d	4dyy	]	.	.	.	.	.
*	*v	*v	*	*	*	*	*	*
==	==	==	==	==	==	==	==
*-	*-	*-	*-	*-	*-	*-	*-
!!!system-decoration: s1{(s2,s3)}
!!!RDF**kern: > = above
!!!RDF**kern: < = below
!!!ENC: Filip Voros
!!!END: 2022-03-12
!!!ENC: Natalia Wrzos
!!!END: 2022-03-17
